X: 428
T:Bonnie Prince Charlie
S:'Cherish the Ladies' by Peg McGrath et al
Z:Transcribed by Michael Stone
N:Posted to the woodenflute mailing list August 2001
R:march
M:2/4
L:1/8
K:D
F2 ED|DB BA|A2 (3Bcd|F2 ED|F2 E2|E2 FA|d2 cB|BA FA|
A2 (3Bcd|e2 dB|B2 AF|AB d2|F2 ED|B2 cd|D2 EF|E2 D2|
d2 A2|e2 A2|f2 ed|dA B2|A2 FE|Dd de|fd df|e2 d2|
d2 A2|ef g2|f2 ed|dc B2|A2 B2|AD E2|FA AF|E2 D2||

